svg/cellphone_screenshot.svg

<svg xmlns="http://www.w3.org/2000/svg" viewBox="0 0 24 24"><path d="M7 1a2 2 0 0 0-2 2v18a2 2 0 0 0 2 2h10a2 2 0 0 0 2-2V3a2 2 0 0 0-2-2zm0 3h10v16H7zm2 2v4h1.5V7.5H13V6zm4.5 8v2.5H11V18h4v-4z"/></svg>

<?xml version="1.0" encoding="UTF-8"?><!DOCTYPE svg PUBLIC "-//W3C//DTD SVG 1.1//EN" "http://www.w3.org/Graphics/SVG/1.1/DTD/svg11.dtd"><svg xmlns="http://www.w3.org/2000/svg" xmlns:xlink="http://www.w3.org/1999/xlink" version="1.1" id="mdi-cellphone-screenshot" width="24" height="24" viewBox="0 0 24 24"><path d="M7,1A2,2 0 0,0 5,3V21A2,2 0 0,0 7,23H17A2,2 0 0,0 19,21V3A2,2 0 0,0 17,1H7M7,4H17V20H7V4M9,6V10H10.5V7.5H13V6H9M13.5,14V16.5H11V18H15V14H13.5Z" /></svg>
